X: 1
T:Pull Down Your Vest -- Reel
M:2/4
L:1/16
R:reel
B:Ryan's Mammoth Collection
N:183
Z:Contributed by Ray Davies,  ray:davies99.freeserve.co.uk
K:D
U(FG)|\
.D.d(cd) .B2(GB) | Aafd (cd).e.g | .f.d(cd) .B2(GB) | Adce (fd).d2 |
.D.d(cd) .B2(GB) | Aafd (cd).e.g | .f.d(cd) .B2(GB) | Adce (fd).d2 ::
adbd .a2(fg) | .a2(fd) (ce).e2 | adbd .a2(fd) | Aceg (fd).d2 |
adbd .a2(fa) | .a2(fd) .c.e(eg) | fdAd .B2(GB) | .A.d(ca) (fd).d2 :|
